rospo-icon-theme-classic-common/32x32/apps/goa-account-google.svg

<svg height="32" viewBox="0 0 32 32" width="32" xmlns="http://www.w3.org/2000/svg"><circle cx="16" cy="17" opacity=".2" r="14"/><circle cx="16" cy="16" fill="#d2d2d2" r="14"/><path d="m16.230469 6c-4.30812 0-8.1469686 2.4798436-10.0253909 6.089844-.7656613 1.48-1.2050781 3.140156-1.2050781 4.910156 0 1.817829.4687079 3.524531 1.2734375 5.033203l-.00781.0059c1.8988375 3.539959 5.6975565 5.960897 9.9648415 5.960897 2.827843 0 5.349207-1.070312 7.248047-2.820312 2.174478-2.010001 3.521484-4.929688 3.521484-8.179688 0-.71-.070852-1.33-.193359-2h-10.806641v4h6.630859c-.418562 1.44-1.286923 2.749609-2.460937 3.599609l.0078.0059a7 7 0 0 1 -4.177722 1.394491 7 7 0 0 1 -6.5195312-4.453125 7 7 0 0 1 -.0019532-.005859 7 7 0 0 1 -.4785156-2.541016 7 7 0 0 1  .4628906-2.480469 7 7 0 0 1 6.5371094-4.519531 7 7 0 0 1 4.708984 1.832031l2.91211-2.8925779c-1.919258-1.82-4.491321-2.9394531-7.390625-2.9394531z" opacity=".1"/><path d="m16 2a14 14 0 0 0 -14 14 14 14 0 0 0  .0215.586 14 14 0 0 1 13.9785-13.586 14 14 0 0 1 13.979 13.414 14 14 0 0 0  .021-.414 14 14 0 0 0 -14-14z" fill="#fff" opacity=".2"/><path d="m27 16c0-.71-.07146-1.33-.193967-2h-10.806033v4h6.630627c-.418562 1.44-1.286311 2.75-2.460325 3.6l3.308214 2.579688c2.174478-2.01 3.521484-4.929688 3.521484-8.179688" fill="#3779d7"/><path d="m16.230469 5c-4.30812 0-8.1469686 2.4798438-10.0253909 6.089844l3.2558594 2.435547a7 7 0 0 1 6.5390625-4.525391 7 7 0 0 1 4.708984 1.832031l2.91211-2.8925779c-1.919258-1.82-4.491321-2.9394531-7.390625-2.9394531z" fill="#e7453c"/><path d="m6.2050781 11.089844c-.7656613 1.48-1.2050781 3.140156-1.2050781 4.910156 0 1.82.4688941 3.529063 1.2753906 5.039062l3.2050782-2.492187a7 7 0 0 1 -.4804688-2.546875 7 7 0 0 1  .4628906-2.480469z" fill="#eead33"/><path d="m9.4785156 18.541016-3.2128906 2.498046c1.89884 3.54 5.697559 5.960938 9.964844 5.960938 2.827843 0 5.349207-1.070312 7.248047-2.820312l-3.300782-2.574219a7 7 0 0 1 -4.177734 1.394531 7 7 0 0 1 -6.5214844-4.458984z" fill="#359950"/></svg>

<svg xmlns="http://www.w3.org/2000/svg" width="32" height="32" version="1.1" viewBox="0 0 32 32">
 <circle style="opacity:0.2" cx="16" cy="17" r="14"/>
 <circle style="fill:#d2d2d2" cx="16" cy="16" r="14"/>
 <path style="opacity:0.1" d="M 16.230469,6 C 11.922349,6 8.0835004,8.4798436 6.2050781,12.089844 5.4394168,13.569844 5,15.23 5,17 c 0,1.817829 0.4687079,3.524531 1.2734375,5.033203 l -0.00781,0.0059 C 8.164465,25.579062 11.963184,28 16.230469,28 19.058312,28 21.579676,26.929688 23.478516,25.179688 25.652994,23.169687 27,20.25 27,17 27,16.29 26.929148,15.67 26.806641,15 L 16,15 l 0,4 6.630859,0 c -0.418562,1.44 -1.286923,2.749609 -2.460937,3.599609 l 0.0078,0.0059 A 7,7 0 0 1 16,24 7,7 0 0 1 9.4804688,19.546875 7,7 0 0 1 9.4785156,19.541016 7,7 0 0 1 9,17 7,7 0 0 1 9.4628906,14.519531 7,7 0 0 1 16,10 a 7,7 0 0 1 4.708984,1.832031 l 2.91211,-2.8925779 C 21.701836,7.1194531 19.129773,6 16.230469,6 Z"/>
 <path style="opacity:0.2;fill:#ffffff" d="M 16 2 A 14 14 0 0 0 2 16 A 14 14 0 0 0 2.0215 16.586 A 14 14 0 0 1 16 3 A 14 14 0 0 1 29.979 16.414 A 14 14 0 0 0 30 16 A 14 14 0 0 0 16 2 z"/>
 <path style="fill:#3779d7" d="m 27,16 c 0,-0.71 -0.07146,-1.33 -0.193967,-2 L 16,14 l 0,4 6.630627,0 c -0.418562,1.44 -1.286311,2.75 -2.460325,3.6 l 3.308214,2.579688 C 25.652994,22.169688 27,19.25 27,16"/>
 <path style="fill:#e7453c" d="M 16.230469 5 C 11.922349 5 8.0835004 7.4798438 6.2050781 11.089844 L 9.4609375 13.525391 A 7 7 0 0 1 16 9 A 7 7 0 0 1 20.708984 10.832031 L 23.621094 7.9394531 C 21.701836 6.1194531 19.129773 5 16.230469 5 z"/>
 <path style="fill:#eead33" d="M 6.2050781 11.089844 C 5.4394168 12.569844 5 14.23 5 16 C 5 17.82 5.4688941 19.529063 6.2753906 21.039062 L 9.4804688 18.546875 A 7 7 0 0 1 9 16 A 7 7 0 0 1 9.4628906 13.519531 L 6.2050781 11.089844 z"/>
 <path style="fill:#359950" d="M 9.4785156 18.541016 L 6.265625 21.039062 C 8.164465 24.579062 11.963184 27 16.230469 27 C 19.058312 27 21.579676 25.929688 23.478516 24.179688 L 20.177734 21.605469 A 7 7 0 0 1 16 23 A 7 7 0 0 1 9.4785156 18.541016 z"/>
</svg>
